lib/radiotmp/nrk-media-playlist-add-later.svg

<svg width="24" height="24" viewBox="0 0 24 24" fill="none" xmlns="http://www.w3.org/2000/svg">
<g opacity="0.3">
<path d="M13 19H22V17H13V19Z" fill="black"/>
<path d="M10 13L22 13V11L10 11V13Z" fill="black"/>
<path d="M22 7L8 7V5L22 5V7Z" fill="black"/>
</g>
<path d="M2 5H4V17H7.21606L6.12964 15H8.5L10.1296 18L8.5 21H6.12964L7.21606 19H2V5Z" fill="black"/>
</svg>

<svg xmlns="http://www.w3.org/2000/svg" viewBox="0 0 24 24"><g fill="#000" opacity=".3"><path d="M13 19h9v-2h-9v2ZM10 13h12v-2H10v2ZM22 7H8V5h14v2Z"/></g><path fill="#000" d="M2 5h2v12h3.216L6.13 15H8.5l1.63 3-1.63 3H6.13l1.086-2H2V5Z"/></svg>
